X: 7288
T: Clean Pease Strae
R: reel
M: 4/4
K: Dmixolydian
e|defd gefd|eA A/A/A c2ce|defd gefd|eA A/A/A d2d:|
f|afdf a/g/f/e/ df|eA A/A/A c2cf|afdf a/g/f/e/ df|eA A/A/A d2df|
a/g/f/e/ df a/g/f/e/ df|eA A/A/A c2cf|afge fde^c|dgfe d2d||

